resources/svg/double-caret-down-small.svg

<svg xmlns="http://www.w3.org/2000/svg" viewBox="0 0 15 15" fill="currentColor"><path fill-rule="evenodd" clip-rule="evenodd" d="M5.50001 4.79291L7.50001 6.79291L9.50001 4.79291L10.2071 5.50001L7.50001 8.20712L4.79291 5.50001L5.50001 4.79291ZM5.50001 7.79291L7.50001 9.79291L9.50001 7.79291L10.2071 8.50001L7.50001 11.2071L4.79291 8.50001L5.50001 7.79291Z" fill="black"/></svg>

<svg xmlns="http://www.w3.org/2000/svg" viewBox="0 0 15 15" fill="currentColor"><path fill-rule="evenodd" clip-rule="evenodd" d="M5.5 4.793l2 2 2-2 .707.707L7.5 8.207 4.793 5.5l.707-.707zm0 3l2 2 2-2 .707.707L7.5 11.207 4.793 8.5l.707-.707z" fill="currentColor"/></svg>
